X: 2218
T: Autumn Leaves
R: barndance
M: 4/4
K: Gminor
|:G2 A2 B2|"Cm7"f2-fe/d/ e4-|"F7"e2 F2 G2 A2|"Bbmaj7"e2-ed/^c/ d4-|
"Ebmaj7"d3f e3d|"Am7b5"c8-|"D7"c2 A2 c3B|"Gm" G8|
z2 G2 A2 B2|"cm7"f2-fe/d/ e4-|"F7"e3g f3e|"Bbmaj7"e2-ed//^c/ d4|
"Ebmaj7"d3f e3d|"Am7b5"c8-|"D7"c2 A2 c3B|"Gm"G8-|G2 z2 c3B||
|:"Am7b5"BA A5-|"D7"A4 G3A|"Gm"B8-|B5 f2|
"Cm7"e3d c4-|"F7"c3g f3e|"Bbmaj7"ed-d5-|"Ebmaj7"d4 ^c2 d2|
[1"Am7b5"ee-e2 g3^f|"D7"d4-d^cde|"Gm"d8- "C9"|"Fm7"d4 "Bb7"G4|
"Ebmaj7"c5 B2|"Am7b5"A4 "D7#5"B2 D2|"Gm"G8|"G7" z8:|
[2"Am7b5"ee-e2 g3^f|"D7"d5 ga|"Gm"ba g4 "C9"f2|"Fm7"d5 "Bb7"G2|
"Ebmaj7"c5 B2|"Am7b5"A4 "D7#5"B2 ^F2|"Gm"A2 A5-|A8||

